assets/Pirate flag/Flat/pirate_flag_flat.svg

<svg width="32" height="32" viewBox="0 0 32 32" fill="none" xmlns="http://www.w3.org/2000/svg">
<path d="M2 7C2 6.44772 2.44772 6 3 6H29C29.5523 6 30 6.44772 30 7V25C30 25.5523 29.5523 26 29 26H3C2.44771 26 2 25.5523 2 25V7Z" fill="#321B41"/>
<path d="M11.7071 10.7071C11.8881 10.5261 12 10.2761 12 10C12 9.44772 11.5523 9 11 9C10.4477 9 10 9.44772 10 10C9.44772 10 9 10.4477 9 11C9 11.5523 9.44772 12 10 12C10.2761 12 10.5261 11.8881 10.7071 11.7071L11.8232 12.8232C11.9209 12.9209 12.0791 12.9209 12.1768 12.8232L12.8232 12.1768C12.9209 12.0791 12.9209 11.9209 12.8232 11.8232L11.7071 10.7071ZM11.7071 21.1893C11.8881 21.3703 12 21.6203 12 21.8965C12 22.4487 11.5523 22.8965 11 22.8965C10.4477 22.8965 10 22.4487 10 21.8965C9.44772 21.8965 9 21.4487 9 20.8965C9 20.3442 9.44772 19.8965 10 19.8965C10.2761 19.8965 10.5261 20.0084 10.7071 20.1893L11.8232 19.0732C11.9209 18.9756 12.0791 18.9756 12.1768 19.0732L12.8232 19.7197C12.9209 19.8173 12.9209 19.9756 12.8232 20.0732L11.7071 21.1893ZM19.8964 10C19.8964 10.2761 20.0084 10.5261 20.1893 10.7071L19.0732 11.8232C18.9756 11.9209 18.9756 12.0791 19.0732 12.1768L19.7197 12.8232C19.8173 12.9209 19.9756 12.9209 20.0732 12.8232L21.1893 11.7071C21.3703 11.8881 21.6203 12 21.8964 12C22.4487 12 22.8964 11.5523 22.8964 11C22.8964 10.4477 22.4487 10 21.8964 10C21.8964 9.44772 21.4487 9 20.8964 9C20.3442 9 19.8964 9.44772 19.8964 10ZM20.1893 21.1893C20.0084 21.3703 19.8964 21.6203 19.8964 21.8965C19.8964 22.4487 20.3442 22.8965 20.8964 22.8965C21.4487 22.8965 21.8964 22.4487 21.8964 21.8965C22.4487 21.8965 22.8964 21.4487 22.8964 20.8965C22.8964 20.3442 22.4487 19.8965 21.8964 19.8965C21.6203 19.8965 21.3703 20.0084 21.1893 20.1893L20.0732 19.0732C19.9756 18.9756 19.8173 18.9756 19.7197 19.0732L19.0732 19.7197C18.9756 19.8173 18.9756 19.9756 19.0732 20.0732L20.1893 21.1893ZM19.75 15C19.75 13.067 18.0711 11.5 16 11.5C13.9289 11.5 12.25 13.067 12.25 15C12.25 15.4417 12.3377 15.8643 12.4977 16.2535L12.2242 16.6637C11.6368 17.5447 12.1226 18.7406 13.158 18.9624L13.5 19.0357V19.75C13.5 20.1642 13.8358 20.5 14.25 20.5C14.6642 20.5 15 20.1642 15 19.75V19.25H15.25V19.75C15.25 20.1642 15.5858 20.5 16 20.5C16.4142 20.5 16.75 20.1642 16.75 19.75V19.25H17V19.75C17 20.1642 17.3358 20.5 17.75 20.5C18.1642 20.5 18.5 20.1642 18.5 19.75V19.0357L18.842 18.9624C19.8774 18.7406 20.3632 17.5447 19.7758 16.6637L19.5023 16.2535C19.6623 15.8643 19.75 15.4417 19.75 15ZM14.9303 16.5825C14.4493 17.0635 13.7462 17.1403 13.3599 16.754C13.0373 16.4314 13.0898 15.4531 13.4336 15.1094C13.7773 14.7656 14.8301 14.7402 15.1018 15.012C15.4882 15.3983 15.4114 16.1014 14.9303 16.5825ZM18.6292 16.754C18.2429 17.1403 17.5397 17.0635 17.0587 16.5825C16.5777 16.1014 16.5009 15.3983 16.8872 15.012C17.159 14.7402 18.2117 14.7656 18.5555 15.1094C18.8992 15.4531 18.9517 16.4314 18.6292 16.754ZM15.7829 16.8799C15.8789 16.7119 16.1211 16.7119 16.2171 16.8799L16.7863 17.876C16.8815 18.0426 16.7612 18.25 16.5692 18.25H15.4308C15.2388 18.25 15.1185 18.0426 15.2137 17.876L15.7829 16.8799Z" fill="#F3EEF8"/>
</svg>

<svg xmlns="http://www.w3.org/2000/svg" width="32" height="32" fill="none"><path fill="#321B41" d="M2 7a1 1 0 0 1 1-1h26a1 1 0 0 1 1 1v18a1 1 0 0 1-1 1H3a1 1 0 0 1-1-1V7Z"/><path fill="#F3EEF8" d="M11.707 10.707A1 1 0 1 0 10 10a1 1 0 1 0 .707 1.707l1.116 1.116a.25.25 0 0 0 .354 0l.646-.646a.25.25 0 0 0 0-.354l-1.116-1.116Zm0 10.482a1 1 0 1 1-1.707.707 1 1 0 1 1 .707-1.707l1.116-1.116a.25.25 0 0 1 .354 0l.646.647a.25.25 0 0 1 0 .353l-1.116 1.116ZM19.897 10c0 .276.111.526.292.707l-1.116 1.116a.25.25 0 0 0 0 .354l.647.646a.25.25 0 0 0 .353 0l1.116-1.116A1 1 0 1 0 21.896 10a1 1 0 1 0-2 0Zm.292 11.19a1 1 0 1 0 1.707.707 1 1 0 1 0-.707-1.708l-1.116-1.116a.25.25 0 0 0-.353 0l-.647.647a.25.25 0 0 0 0 .353l1.116 1.116ZM19.75 15c0-1.933-1.679-3.5-3.75-3.5-2.071 0-3.75 1.567-3.75 3.5 0 .442.088.864.248 1.253l-.274.41a1.5 1.5 0 0 0 .934 2.3l.342.073v.714a.75.75 0 0 0 1.5 0v-.5h.25v.5a.75.75 0 0 0 1.5 0v-.5H17v.5a.75.75 0 0 0 1.5 0v-.714l.342-.074a1.5 1.5 0 0 0 .934-2.298l-.274-.41c.16-.39.248-.812.248-1.254Zm-4.82 1.582c-.48.482-1.184.558-1.57.172-.323-.323-.27-1.3.074-1.645.343-.343 1.396-.369 1.668-.097.386.386.31 1.09-.172 1.57Zm3.7.172c-.387.386-1.09.31-1.571-.172-.481-.48-.558-1.184-.172-1.57.272-.272 1.325-.246 1.668.097.344.344.397 1.322.074 1.645Zm-2.847.126a.25.25 0 0 1 .434 0l.57.996a.25.25 0 0 1-.218.374h-1.138a.25.25 0 0 1-.217-.374l.569-.996Z"/></svg>
